public/pieces/alpha/wN.svg

<svg viewBox="0 0 2048 2048" xmlns="http://www.w3.org/2000/svg"><path d="m352.07191 860.62022 786.98429-568.37752 94.346 147.27191s335.9641 103.55056 398.0944 388.88988c62.1304 285.33931 50.6247 973.37531 50.6247 973.37531l-1088.43141 9.2045s-36.81798-289.9416 184.08989-460.2247c220.90786-170.2832 220.90786-211.7034 220.90786-211.7034s-225.51011-71.3349-294.54382-16.1079-117.3573 138.0674-117.3573 138.0674l-128.86292-66.7326 73.63595-85.1415-87.4427-96.6472-94.34606 55.2269z" fill="#f9f9f9"/><path d="m1151 178-115 154c-74 50-147.5 97.83333-220.5 143.5s-111.5 81.5-115.5 107.5l-396 263 12 297 122-86 51 50-115 82 217 121 56-102c37.33333-68 134.66667-88 292-60-12 20-30.33333 48.3333-55 85s-63 60.3333-115 71c-90 76-151 155.1667-183 237.5s-45 182.8333-39 301.5h1242c-23.3333-54.6667-42.5-118.1667-57.5-190.5s-16.5-151.1667-4.5-236.5c28.6667-238.6667 12.8333-439.83333-47.5-603.5s-204.5-302.83333-432.5-417.5zm-17 145 59 133c119.3333 53.33333 206.6667 116 262 188s100 150 134 234c26.6667 96.66667 40.1667 180.8333 40.5 252.5s-2.6667 140-9 205-10.5 131.3333-12.5 199 8.6667 145.8333 32 234.5h-1019c-4-84 12-158.5 48-223.5s84.66667-123.8333 146-176.5c78-22 128.66667-56.1667 152-102.5 23.0452-45.7612 52.9313-89.4052 89.6328-130.9395 13.7932-9.7138 27.6895-14.9977 37.8672-15.0605 10.3813-.064 21.5.5 33.5-1.5 52-7.3333 94.8333-35.6667 128.5-85 33.6667-49.33333 51.1667-104.33333 52.5-165l-19-67c-36.6667 159.33333-99.3333 245-188 257-14 2-29 3.8333-45 5.5-15.7168 1.6372-33.0453 10.5297-51.9785 26.6406-41.11935-24.8861-87.12611-35.2673-138.0215-31.1406-74 6-129 15-165 27l-108.5 73-38.5 45-47-28 78-65-138-144-64 41-4-125 366-241c14.66667-34 58.33333-74 131-120s142-89.66667 208-131zm-173.54297 240.9375c-6.67969.02051-12.83203 2.375-18.45703 7.0625l-116 100 212 2c22.6667 0 17.3333-21.16667-16-63.5-23.95833-30.42708-44.47266-45.61491-61.54297-45.5625zm-458.45703 304.0625-33 4-33 56 57 26 46-55z" fill="#101010"/></svg>

<svg viewBox="0 0 2048 2048" xmlns="http://www.w3.org/2000/svg"><path d="m 352.07191,860.62022 786.98429,-568.37752 94.346,147.27191 c 0,0 335.9641,103.55056 398.0944,388.88988 62.1304,285.33931 50.6247,973.37531 50.6247,973.37531 l -1088.43141,9.2045 c 0,0 -36.81798,-289.9416 184.08989,-460.2247 220.90786,-170.2832 220.90786,-211.7034 220.90786,-211.7034 0,0 -225.51011,-71.3349 -294.54382,-16.1079 -69.03371,55.227 -117.3573,138.0674 -117.3573,138.0674 l -128.86292,-66.7326 73.63595,-85.1415 -87.4427,-96.6472 -94.34606,55.2269 z" fill="#f9f9f9"/><path d="M 1151 178 L 1036 332 C 962 382 888.5 429.83333 815.5 475.5 C 742.5 521.16667 704 557 700 583 L 304 846 L 316 1143 L 438 1057 L 489 1107 L 374 1189 L 591 1310 L 647 1208 C 684.33333 1140 781.66667 1120 939 1148 C 927 1168 908.66667 1196.3333 884 1233 C 859.33333 1269.6667 821 1293.3333 769 1304 C 679 1380 618 1459.1667 586 1541.5 C 554 1623.8333 541 1724.3333 547 1843 L 1789 1843 C 1765.6667 1788.3333 1746.5 1724.8333 1731.5 1652.5 C 1716.5 1580.1667 1715 1501.3333 1727 1416 C 1755.6667 1177.3333 1739.8333 976.16667 1679.5 812.5 C 1619.1667 648.83333 1475 509.66667 1247 395 L 1151 178 z M 1134 323 L 1193 456 C 1312.3333 509.33333 1399.6667 572 1455 644 C 1510.3333 716 1555 794 1589 878 C 1615.6667 974.66667 1629.1667 1058.8333 1629.5 1130.5 C 1629.8333 1202.1667 1626.8333 1270.5 1620.5 1335.5 C 1614.1667 1400.5 1610 1466.8333 1608 1534.5 C 1606 1602.1667 1616.6667 1680.3333 1640 1769 L 621 1769 C 617 1685 633 1610.5 669 1545.5 C 705 1480.5 753.66667 1421.6667 815 1369 C 893 1347 943.66667 1312.8333 967 1266.5 C 990.0452 1220.7388 1019.9313 1177.0948 1056.6328 1135.5605 C 1070.426 1125.8467 1084.3223 1120.5628 1094.5 1120.5 C 1104.8813 1120.436 1116 1121 1128 1119 C 1180 1111.6667 1222.8333 1083.3333 1256.5 1034 C 1290.1667 984.66667 1307.6667 929.66667 1309 869 L 1290 802 C 1253.3333 961.33333 1190.6667 1047 1102 1059 C 1088 1061 1073 1062.8333 1057 1064.5 C 1041.2832 1066.1372 1023.9547 1075.0297 1005.0215 1091.1406 C 963.90215 1066.2545 917.89539 1055.8733 867 1060 C 793 1066 738 1075 702 1087 L 593.5 1160 L 555 1205 L 508 1177 L 586 1112 L 448 968 L 384 1009 L 380 884 L 746 643 C 760.66667 609 804.33333 569 877 523 C 949.66667 477 1019 433.33333 1085 392 L 1134 323 z M 960.45703 563.9375 C 953.77734 563.95801 947.625 566.3125 942 571 L 826 671 L 1038 673 C 1060.6667 673 1055.3333 651.83333 1022 609.5 C 998.04167 579.07292 977.52734 563.88509 960.45703 563.9375 z M 502 868 L 469 872 L 436 928 L 493 954 L 539 899 L 502 868 z " fill="#101010"/></svg>
